X: 137
T: Missa Tandernaken / Kyrie
N: Derived from Rue1030a-Missa_Tandernaken-Kyrie.krn
C: Pierre de la Rue
%%abc-version 2.0
%%abcx-abcm2ps-target-version 5.9.1 (29 Sep 2008)
%%abc-creator hum2abc beta
%%abcx-conversion-date 2019/02/17 08:01:15
%%abc-edited-by Jesse Rodin
%%abc-edited-by Chris Gage 05-24-2013
%%abcx-initial-encoding-date 2013/08/04/
%%humdrum-veritas 893144518
%%humdrum-veritas-data 2640768932
%%linebreak <none>
%%barnumbers 0
L: 1/4
M: 2/1
Q: 1/2=120
%%staves [1 2 3 4]
V: 1 clef=treble
V: 2 clef=treble-8
V: 3 clef=treble-8
V: 4 clef=bass
K: F
[V:1] A8 | 
[V:2] d8 | 
[V:3] z8 | 
[V:4] D,8 | 
[V:1] G4F4 | 
[V:2] B2c2d2A2- | 
[V:3] z4A4- | 
[V:4] _E,4D,4 | 
[V:1] E8 | 
[V:2] A2GFE4 | 
[V:3] A8 | 
[V:4] C,8 | 
[V:1] D3EF2E2- | 
[V:2] F4z4 | 
[V:3] B4A4 | 
[V:4] B,,3C,D,2C,2- | 
[V:1] E2G4FE | 
[V:2] z4z2d2- | 
[V:3] G8 | 
[V:4] C,2B,,A,,G,,4 | 
[V:1] D4z2A2- | 
[V:2] d2cBA4 | 
[V:3] F8 | 
[V:4] z2D,4C,B,, | 
[V:1] A2GFE2D2 | 
[V:2] z2c3BA2- | 
[V:3] F4A4- | 
[V:4] A,,4z2F,2- | 
[V:1] F2G2A4 | 
[V:2] AGF4E2 | 
[V:3] A4A4 | 
[V:4] F,2E,D,C,4 | 
[V:1] B8 | 
[V:2] F8 | 
[V:3] d8 | 
[V:4] B,,8 | 
[V:1] A4A4- | 
[V:2] E4F4 | 
[V:3] c4A4 | 
[V:4] C,4D,4 | 
[V:1] A2GFG4 | 
[V:2] G4z2d2 | 
[V:3] B8 | 
[V:4] G,,8 | 
[V:1] A8 | 
[V:2] e2f3edc | 
[V:3] A8- | 
[V:4] z2D,3E,F,2- | 
[V:1] z2A3=Bc2- | 
[V:2] d2cBA3B | 
[V:3] A8 | 
[V:4] F,E,D,C,D,2C,B,, | 
[V:1] c=BAGA2GF | 
[V:2] c8- | 
[V:3] A8- | 
[V:4] A,,8- | 
[V:1] E8 ||  
[V:2] c8 ||  
[V:3] A8 ||  
[V:4] A,,8 ||  
[V:1]  [K:F] [K:clef=treble][M:2/1]z8 | 
[V:2]  [K:F] [K:clef=treble-8][M:2/1]d4f4- | 
[V:3]  [K:F] [K:clef=treble-8][M:2/1]z8 | 
[V:4]  [K:F] [K:clef=bass][M:2/1]z4D,4 | 
[V:1] A4c4- | 
[V:2] f2edc3d | 
[V:3] z4A4 | 
[V:4] F,6E,D, | 
[V:1] c2=BAG2A2 | 
[V:2] e4z2A2- | 
[V:3] c8 | 
[V:4] C,3D,E,2F,2 | 
[V:1] E4z2F2- | 
[V:2] ABc3BAG | 
[V:3] c4A4- | 
[V:4] C,3B,,C,2D,2- | 
[V:1] F2EDC2D2 | 
[V:2] F4z2F2- | 
[V:3] A4A4 | 
[V:4] D,2C,B,,A,,2D,2- | 
[V:1] A,2A2F2A2 | 
[V:2] FGA3GFE | 
[V:3] F8 | 
[V:4] D,E,F,2D,4 | 
[V:1] F2A2G4 | 
[V:2] D4E2C2 | 
[V:3] F4G4- | 
[V:4] z4z2E,2 | 
[V:1] z2G4G2 | 
[V:2] E2C2E2C2 | 
[V:3] G4G4 | 
[V:4] C,2E,2C,2E,2 | 
[V:1] F3GA2F2 | 
[V:2] F2D2F2D2 | 
[V:3] A8 | 
[V:4] D,2F,2D,2F,2 | 
[V:1] G2E2F2D2 | 
[V:2] E4D2d2- | 
[V:3] G4F4 | 
[V:4] C,4D,4 | 
[V:1] G8 | 
[V:2] d=Be3=B^c2 | 
[V:3] E8 | 
[V:4] z4G,4 | 
[V:1] F8- | 
[V:2] d4d4 | 
[V:3] D8 | 
[V:4] A,2F,2B,4 | 
[V:1] F8 ||  
[V:2] d8 ||  
[V:3] D8 ||  
[V:4] A,8 ||  
[V:1]  [K:F] [K:clef=treble][M:2/1]A6GF | 
[V:2]  [K:F] [K:clef=treble-8][M:2/1]c3de2e2- | 
[V:3]  [K:F] [K:clef=treble-8][M:2/1]A3Bc2c2- | 
[V:4]  [K:F] [K:clef=bass][M:2/1]A,,8 | 
[V:1] E4F3G | 
[V:2] edcBA4- | 
[V:3] cBAGF4 | 
[V:4] A,,4D,3E, | 
[V:1] A2A3GFE | 
[V:2] A4A4 | 
[V:3] z4F4- | 
[V:4] F,2F,3E,D,C, | 
[V:1] D8 | 
[V:2] B2d4cB | 
[V:3] F4F4 | 
[V:4] B,,4B,,3C, | 
[V:1] z4A4 | 
[V:2] A4z2c2 | 
[V:3] F8 | 
[V:4] D,2D,3C,B,,A,, | 
[V:1] B3AG2FE | 
[V:2] B2d2e2f2- | 
[V:3] G4z4 | 
[V:4] G,,4C,2D,2- | 
[V:1] D4E4 | 
[V:2] fed4c2 | 
[V:3] z4z2G2 | 
[V:4] D,E,F,2G,2E,2 | 
[V:1] D4z4 | 
[V:2] d4e2f2- | 
[V:3] F2A2B2c2- | 
[V:4] F,2D,2G,2F,2 | 
[V:1] z4z2G2 | 
[V:2] fed4^c2 | 
[V:3] cBA4G2 | 
[V:4] D,4E,4 | 
[V:1] F2A2B2c2- | 
[V:2] d3cBAA2 | 
[V:3] A4d2c2 | 
[V:4] D,4z2A,2- | 
[V:1] cBA4G2 | 
[V:2] c4F2G2 | 
[V:3] A4B4 | 
[V:4] A,2F,2D,2E,2 | 
[V:1] A8- | 
[V:2] D2E2F4 | 
[V:3] A8- | 
[V:4] F,2C,2D,4 | 
[V:1] A8 |]  
[V:2] E8 |]  
[V:3] A8 |]  
[V:4] A,,8 |]  



